X:1
T: Argyll Strathspey
T: 8 x 32S 3C (RSCDS Bk 35)
P: Mrs. Stewart's Strathspey
R: strathspey
C: William Marshall
C: Arr. T. Traub 5-25-2007
M: 4/4
L: 1/8
%
K: D
|: "D"D<DF>D d/c/B/A/ F2|"G"B<EE>F "A7"G>AB<d|"D"D<DF>A d/c/B/A/ FD|"A7"A>dc>e "D"d<D d<f :|
"D"d>AF>A d/c/B/A/ d2|"Em"e<EE>F "G"G>A "A"B>c|"D"d>AF>A d/e/f/g/ a>g|"D"f>d"D"A>G "A"F>DF<A |
"D"d>AF>A d/c/B/A/ d2|"Em"e<EE>F "G"G>A"A"B>c|"Bm"d>f"A"e>c "G"d>B"D"A>F|"G"G>B"A"A>c "D"d<D D2 |]
